Papirus/16x16/actions/object-columns.svg

<?xml version="1.0" encoding="UTF-8" standalone="no"?>
<svg id="svg6394" xmlns:rdf="http://www.w3.org/1999/02/22-rdf-syntax-ns#" xmlns="http://www.w3.org/2000/svg" xmlns:osb="http://www.openswatchbook.org/uri/2009/osb" height="16" width="16" version="1.1" xmlns:cc="http://creativecommons.org/ns#" viewBox="0 0 16 16" xmlns:dc="http://purl.org/dc/elements/1.1/">
 <metadata id="metadata6399">
  <rdf:RDF>
   <cc:Work rdf:about="">
    <dc:format>image/svg+xml</dc:format>
    <dc:type rdf:resource="http://purl.org/dc/dcmitype/StillImage"/>
    <dc:title/>
   </cc:Work>
  </rdf:RDF>
 </metadata>
 <path id="rect23242" opacity="1" fill="#5c616c" d="m3 2v12h2v-12h-2zm4 0v12h2v-12h-2zm4 0v12h2v-12h-2z"/>
</svg>

<?xml version="1.0" encoding="UTF-8" standalone="no"?>
<svg xmlns="http://www.w3.org/2000/svg" viewBox="0 0 16 16">
  <defs>
    <style type="text/css" id="current-color-scheme">
      .ColorScheme-Text {
        color:#5c616c;
      }
      </style>
  </defs>
  <path style="fill:currentColor;opacity:1" class="ColorScheme-Text" d="M 3 2 L 3 14 L 5 14 L 5 2 L 3 2 z M 7 2 L 7 14 L 9 14 L 9 2 L 7 2 z M 11 2 L 11 14 L 13 14 L 13 2 L 11 2 z "/>
</svg>
